X: 138
T: Polonäs efter Abraham Hagholm (nr 138) 
S: efter Abraham Hagholm
R: Polonäs
O: Östergötland
B: Abraham Hagholms notbok, nr 138
B: http://www.smus.se/earkiv/fmk/browselarge.php?lang=sw&katalogid=M+26&bildnr=00027
Z: Nils L
M: 3/4
L: 1/16
K: F
f4 b2bg a2af | agfe f2c2 A2c2 | f4 b2bg a2af | agfe e4 f4 ::
c2(cA) c2(cA) c2(c_e) | d2cB B8 | d2(dB) d2(dB) d2(df) | e2dc c8 | 
f2ef g2fg a2ga | bagf g4 f4 :|

